X:1
T:Lonely
T:Lonely
T:piano
%%score 1 { 2 | 3 }
L:1/8
Q:1/4=95
M:4/4
K:E
V:1 treble nm="Voice"
V:2 treble nm="Piano"
V:3 bass 
V:1
"^\n" z4 E/E/E/E/ EF/F/- | FD z3/2 G,/ D/D/D/D/ DD/D/ | C2 z B,/C/- CC CB,/C/- | CCCB, CB,G,G,- | %4
w: 지 금 내 가 하 는 얘|* 기 널 아 프 게 할 지 몰 라|* 아 마 * 날 죽 도 록|* 미 워 하 게 될 거 야|
 G, B,2 G,/G,/ E/E/E/E/ E/E/E/E/- | E<D z G,/G,/ D/D/D/D/ DE/E/ | C2 z B,/B,/ CC/C/- C/B,C/- | %7
w: * * 내 가 예 전 같 지 않 다 는 니|* 말 모 두 틀 린 말 은 아 니 야|* 나 도 변 해 버 * 린 내|
 C/CC/- C/CF/- F/FF/- FD |"E" E z BB/F/- F/FF/- F<E |"G#7" z3/2 E/ BB/F/- F/FF/- FE- | %10
w: * 가 낯 * 설 기 * 만 해 * *|* 너 무 착 * 한 넌 * 데|난 그 대 로 * 인 데 * 오|
"C#m7" E z E/CE/- E z E/CE/- |"B" EE E/EG/- G/EE/- E<F |"E" z E BB/F/ F/FFE3/2 | %13
w: * I don't know * I don't know|* 내 가 왜 이 * 러 는 * 지|그 토 록 사 랑 했 는 데|
"G#7" z3/2 E/ cc/FFFE3/2 |"C#m" z3/2 E/ CE F<G E/E/E |"C" BAG"D"E z2 E/E/F/G/- | %16
w: 넌 여 기 있 는 데 오|I don't know * * 이 제 날|찾 고 싶 어 Ba by I'm So|
"E" G G2 G/G/ GG GF/G/- |"G#7" GG z G/G/ GF FG/F/- |"C#m" FE EC<E z EC |"B" z F FF<GG GF/G/- | %20
w: * rry 너 와 있 어 도 난 lone|* ly 사 랑 하 긴 내 가 부|* 족 한 가 봐 이 런|못 난 날 용 서 해 I'm So|
"E" G G2 G/G/ GG GF/G/- |"G#7" GG z G/G/ GF FG/F/- |"C#m" FE EC<EEEC |"B" z D DD<DD DE/E/- | %24
w: * ry 이 게 너 와 나 의 Sto|* ry 사 랑 이 란 내 겐 과|* 분 한 가 봐 니 곁 에|있 어 도 Ba by I'm so Lone|
"E" EE EE<EE GG/G/ |"G#7" FF z2 FF FG/G/ |"C#m" EE EE<EE BB/B/- |"B" BF/G/ F2 DD DE/E/- | %28
w: * ly lone ly lone ly lone ly lone|* ly Ba by I'm so lone|* ly lone ly lone ly lone ly lone|* ly * * Ba by I'm so lone|
"E" EE EE<EE GG/G/ |"G#7" FF z2 FF FF/G/- |"C#m" GE EE<EE EE/E/- |"C" EB,/=C/ B,2"D" z ^C z E- | %32
w: * ly lone ly lone ly lone ly lone|* ly Ba by I'm so lone|* ly lone ly lone ly lone ly lone|* ly * * Eh eh|
 E z3 z4 |"E" z4 E/E/E/E/ EF/F/- |"G#7" FD z2 D/D/D/D/ DE/G/- |"C#m" G2 z B,/C/ CC C/B,/C/C/ | %36
w: |네 가 이 상 한 게 아|* 냐 내 가 이 상 한 거 야|* 이 미 오 래 전 부 터 난|
"B" CC CB,/C z/ E DB,- |"E" B, z2 G,/G,/ E/E/E/E/ E/E/F |"G#7" FD z B,/B,/ G/G/G/G/ G/F/F | %39
w: 준 비 했 나 봐 이 별 을|* 정 말 잘 해 주 고 싶 었 는|데 * 하 필 사 랑 앞 에 서 는 왜|
"C#m" D/E z3/2 B,/C/ CCCB, |"B" CCCB,"D#" G"E"F"F#" F/EG/- |"E" G z BB/F/- F/FF/- F<E | %42
w: * * 이 렇 게 한 없 이|작 아 지 고 외 로 운 * 지|* 너 무 착 * 한 넌 * 데|
"G#7" z3/2 E/ BB/F/- F/FF/- FE- |"C#m7" E z E/CE/- E z E/CE/- |"B" EE E/EG/- G/EE/- E<F | %45
w: 난 그 대 로 * 인 데 * 오|* I don't know * I don't know|* 내 가 왜 이 * 러 는 * 지|
"E" z E BB/F/ F/FFE3/2 |"G#7" z3/2 E/ cc/FFFE3/2 |"C#m" z3/2 E/ CE F<G E/E/E | %48
w: 그 토 록 사 랑 했 는 데|넌 여 기 있 는 데 오|I don't know * * 이 제 날|
"C" BAG"D"E z2 E/E/F/G/- |"E" G G2 G/G/ GG GF/G/- |"G#7" GG z G/G/ GF FG/F/- |"C#m" FE EC<E z EC | %52
w: 찾 고 싶 어 Ba by I'm So|* rry 너 와 있 어 도 난 lone|* ly 사 랑 하 긴 내 가 부|* 족 한 가 봐 이 런|
"B" z F FF<GG GF/G/- |"E" G G2 G/G/ GG GF/G/- |"G#7" GG z G/G/ GF FG/F/- |"C#m" FE EC<EEEC | %56
w: 못 난 날 용 서 해 I'm So|* rry 이 게 너 와 나 의 Sto|* ry 사 랑 이 란 내 겐 과|* 분 한 가 봐 니 곁 에|
"B" z D DD<DD DE/E/- |"E" EE EE<EE GG/G/ |"G#7" FF z2 FF FG/G/ |"C#m" EE EE<EE BB/B/- | %60
w: 있 어 도 Ba by I'm so Lone|* ly lone ly lone ly lone ly lone|* ly Ba by I'm so lone|* ly lone ly lone ly lone ly lone|
"B" BF/G/ F2 DD DE/E/- |"E" EE EE<EE GG/G/ |"G#7" FF z2 FF FF/G/- |"C#m" GE EE<EE EE/E/- | %64
w: * ly * * Ba by I'm so lone|* ly lone ly lone ly lone ly lone|* ly Ba by I'm so lone|* ly lone ly lone ly lone ly lone|
"C" EB,/=C/ B,2"D" z2 z B, |"E" E3 z EE/EF/D- |"G#7" D2 z B, B,C EC/E/- |"C#m" E<E z B/c/ BGFG | %68
w: * ly * * Cuz|I'm just a no ther girl|* 이 밤 이 외 로 워|* 난 더 는 견 딜 수 없|
"B" GF z G AG z B, |"E" E3 z EE/EF/D- |"G#7" D2 z E BG GF/G/- |"C#m" G/F/E z B,<CCCE | %72
w: 어 * Good B ye Cuz|I'm just a no ther girl|* 너 무 나 외 로 워|* * * 지 금 네 곁 에|
"B" z G FG/B/ GG BG/G/ |"E" EE EE<EE GG/G/ |"G#7" FF z2 FF FG/G/ |"C#m" EE EE<EE BB/B/- | %76
w: 있 어 도 Ba * by I'm so lone|* ly lone ly lone ly lone ly lone|* ly Ba by I'm so lone|* ly lone ly lone ly lone ly lone|
"B" BF/G/ F2 DD DE/E/- |"E" EE EE<EE GG/G/ |"G#7" FF z2 FF FF/G/- |"C#m" GE EE<EE EE/E/- | %80
w: * ly * * Ba by I'm so lone|* ly lone ly lone ly lone ly lone|* ly Ba by I'm so lone|* ly lone ly lone ly lone ly lone|
"C" EB,/=C/ B,2"D" z ^C z E |] %81
w: * ly * * Eh eh|
V:2
 z8 | z8 | z8 | z8 | z8 | z8 | z8 | z8 | [GBe]8 | [G^Bd]8 | [EGc]8 | [DFB]4 [Dd][Ee] [Ff]2 | %12
 [GBe]6 [EB]2 | [G^Bd]6 [DB]2 | [EGc]6 [Ec]2 | [=C=G]3 [=DA]3 z2 |!<(! [Ge]6 [Gf]2!<)! | %17
 [^Bg]6!>(! [Gf]2!>)! | [Be]6 [EGd]2 | [DB]4 [Dd][Ee] [Ff]2 |!<(! [Ge]6 [Gf]2!<)! | [^Bg]6 [Gf]2 | %22
 [Be]6 [EGd]2 | [DB]3 z4 z | [EGe]4 [B,EB]2 [Ge]2 | [Ge]4 [^Be]2 [Bf]2 | [cg]6 [Ge]2 | %27
 [DB]4 [Bd]2 [Bf]2 | [EGe]4 [B,EB]2 [Ge]2 | [Ge]4 [^Be]2 [Bf]2 | [cg]6 [Ge]2 | [EB]4 [Ff]4 | z8 | %33
 EG,/B,/- B,/E/G,/B,/ [EG]2 [B,GB]2 | FG,/^B,E/G,/B,/ GF [^Bd]2 | EG,/B,E/G,/B,/ dB [CG]2 | %36
 DF,/B,D/F, z4 | EG,/B,/- B,/E/G,/B,/ [EG]2 [B,GB]2 | FG,/^B,E/G,/B,/ GF [^Bd]2 | %39
 EG,/B,E/G,/B,/ dB [CG]2 | DF,/B,D/F, [Dd][Ee] [Ff]2 | fe/BGe>GB/ fe | gf/^BGdB/d gf | %43
 ec/GB/G<cBde | eB/FB/d [Dd][Ee] [Ff]2 | fe/BGe>GB/ fe | gf/^BGdB/d gf | ec/GB/G<cBde | %48
 !arpeggio![=CE=c]4 !arpeggio![=DF=d]4 | [GBe]4 [Ge]B [FBf]2 | [^Bdg]4 [Bg]e [GBf]2 | %51
 [GBe]4 [Be]c [EGd]2 | [FBf] [Fd]2 [Ee] [DFB][EAc] [FBd]2 | [GBe]4 [eg]B [FBf]2 | %54
 [^Bdg]4 [gb]e [Bfg]2 | [GBe]4 [Beg]c [df]2 | [FBd]4 z4 |!mp! [EGe]4 [B,EB]2 [Ge]2 | %58
 [Ge]4 [^Be]2 [Bf]2 |!mp! [cg]6 [Ge]2 | [DB]4 [Bd]2 [Bf]2 |!mp! [EGe]4 [B,EB]2 [Ge]2 | %62
 [Ge]4 [^Be]2 [Bf]2 |!mp! [cg]6 [Ge]2 | [EB]4 [Ff]4 | [B,EGB]2 [B,EB]3/2[B,EFG][FGBe]3/2 [GBef]2 | %66
 [DF^B]2 [DGB]3/2[^B,FG][FGd]3/2[GBf][dg] | [CEB]2 [B,EG]3/2[EGc][FGBe]3/2 [FGBe]2 | %68
 [FBe]2 [FBd]3/2[DFB]3/2[Ae] [Bf]2 | [B,EGB]2 [B,EB]3/2[B,EFG][FGBe]3/2 [GBef]2 | %70
 [DF^B]2 [DGB]3/2[^B,FG][FGd]3/2[GBf][dg] | [CEB]6 [EGc]2 | !arpeggio![FBd]4 [B,DFB]2 [Bdf]2 | %73
 [Beg]2 [Bef]3/2[GBe][Beg]3/2 [Befg]2 | [Gdf]2 [Gd]3/2[Gdf][FG^B]3/2 [FGBd]2 | %75
 [GBce]2 [Beg]3/2[GBe][GBc]3/2 [GBce]2 | [FBf]2 [FBd]3/2[DFB]3/2[Ae] [Bf]2 | %77
 [Beg]2 [Bef]3/2[GBe][Beg]3/2 [Befg]2 | [Gdf]2 [Gd]3/2[Gdf][FG^B]3/2 [FGBd]2 | %79
 [GBce]2 [Beg]3/2[GBe][GBc]3/2 [GBce]2 | [=CE=c]4 [=DF=d]4 |] %81
V:3
 z8 | z8 | z8 | z8 | z8 | z8 | z8 | z8 | [E,,B,,]8 | [G,,^B,,]8 | [C,,B,,]8 | %11
 [B,,,D,,]4 [B,,D,][C,E,] [C,F,]2 | [E,,B,,]6 [E,,B,,]2 | [G,,^B,,]6 [G,,B,,]2 | %14
 [C,,B,,]6 [C,,B,,]2 | [=C,E,]3 [=D,F,]3 z2 | [E,,G,,E,]4 [E,,B,,E,]2 [E,,B,,F,]2 | %17
!mf! [G,,D,F,]4 [G,,D,]2 [G,,^B,,F,]2 | [C,,G,,]4!mp! [C,,E,,]2 [C,G,]2 | %19
 [B,,,F,,]4!mf! [B,,D,][C,E,] [D,F,]2 | [E,,G,,E,]4 [E,,B,,E,]2 [E,,B,,F,]2 | %21
!mf! [G,,D,F,]4 [G,,D,]2 [G,,^B,,F,]2 | [C,,G,,]4!mp! [C,,E,,]2 [C,G,]2 | %23
 [B,,D,]3 z3!mp! [D,,D,]2 | [E,,B,,]4 [E,,G,,]2 [E,,B,,]2 | [G,,^B,,]4!<(! [G,,D,]2 [G,,B,,]2!<)! | %26
 [C,,E,,C,]6 [C,,G,,]2 | [B,,,F,,]4 [B,,D,]2 [B,,F,]2 | [E,,B,,]4 [E,,G,,]2 [E,,B,,]2 | %29
 [G,,^B,,]4!<(! [G,,D,]2 [G,,B,,]2!<)! | [C,,E,,C,]6 [C,,G,,]2 | [=C,=G,]4 [=D,A,]4 | z8 | %33
 [E,,B,,G,]4 [E,,E,]2 [B,,E,]2 | [G,,^B,,F,]4 [G,,G,]2 [D,G,]2 | [C,,G,,B,,]4 [E,B,]2 [G,,C,E,]2 | %36
 [D,F,B,]4 z2 [B,,B,]2 | [E,,B,,G,]4 [E,,E,]2 [B,,E,]2 | [G,,^B,,F,]4 [G,,G,]2 [D,G,]2 | %39
 [C,,G,,B,,]4 [E,B,]2 [G,,C,E,]2 | [B,,D,F,]4 [B,,D,][C,E,] [B,,F,]2 | %41
!mp! [E,,B,,G,]3 z/ [G,,E,]2 z/ [B,,G,]2 | [G,,D,]3 z3/2 [^B,,G,]3/2 [G,^B,]2 | %43
!mp! [C,E,C]4 z [B,,E,G,]3 |!<(! [B,,D,F,]4 [B,,D,][C,E,] [B,,F,]2!<)! | %45
 [E,,B,,G,]3 z/ [G,,E,]2 z/ [B,,G,]2 | [G,,D,]3 z3/2 [^B,,G,]3/2 [G,^B,]2 | %47
!mp! [C,E,C]4 z [B,,E,G,]3 | [=C,,=G,,=C,]4 [=D,,A,,=D,]4 | %49
!<(! [E,,E,]2 E,B,, [E,,E,]E,,/B,,/ E,E,,!<)! | [G,,G,]2 G,^B,, [G,,G,]G,,/D,/ G,G,, | %51
 [C,,C,]2 C,G,, [C,,C,]C,,/G,,/ C,C,, |!<(! [B,,,B,,]F,,D,B,, [B,,,B,,][C,,C,] [D,,D,]2!<)! | %53
!<(! [E,,E,]2 E,B,, E,,E,,/B,,/ E,E,,!<)! | [G,,G,]2 G,^B,, G,,G,,/D,/ G,G,, | %55
 [C,,C,]2 C,G,, C,,C,,/G,,/ C,C,, | [B,,F,A,]4 z2 [B,,,B,,]2 | [E,,B,,]4 [E,,G,,]2 [E,,B,,]2 | %58
 [G,,^B,,]4!<(! [G,,D,]2 [G,,B,,]2!<)! | [C,,E,,C,]6 [C,,G,,]2 | [B,,,F,,]4 [B,,D,]2 [B,,F,]2 | %61
 [E,,B,,]4 [E,,G,,]2 [E,,B,,]2 | [G,,^B,,]4!<(! [G,,D,]2 [G,,B,,]2!<)! | [C,,E,,C,]6 [C,,G,,]2 | %64
 [=C,=G,]4 [=D,A,]4 | [E,,E,]2 [B,,G,]2 z/ [B,,E,]3/2 [B,,F,]2 | %66
 [G,,G,]2 [D,^B,]2 z/ [B,,F,]3/2 [B,,G,]2 | [C,,C,]2 [C,G,]2 z/ [B,,E,]3/2 [C,G,]2 | %68
 [B,,,F,,B,,]3 [F,,D,] [B,,,B,,][C,,C,] [D,,D,]2 | [E,,E,]2 [B,,G,]2 z/ [B,,E,]3/2 [B,,F,]2 | %70
 [G,,G,]2 [D,^B,]2 z/ [B,,F,]3/2 [B,,G,]2 | [C,,C,]6 [C,B,]2 | [B,,F,A,]4 [B,,F,]2 [B,,,B,,]2 | %73
 [E,,E,]2 E,B,, [E,,E,]E,,/B,,/ E,E,, | [G,,G,]2 G,^B,, [G,,G,]G,,/D,/ G,G,, | %75
 [C,,C,]2 C,G,, [C,,C,]C,,/G,,/ C,C,, | [B,,,F,,B,,]3 [F,,D,] [B,,,B,,][C,,C,] [D,,D,]2 | %77
 [E,,E,]2 E,B,, [E,,E,]E,,/B,,/ E,E,, | [G,,G,]2 G,^B,, [G,,G,]G,,/D,/ G,G,, | %79
 [C,,C,]2 C,G,, [C,,C,]C,,/G,,/ C,C,, | [=C,,=G,,=C,]4 [=D,,A,,=D,]4 |] %81

